project/img/advantares-icon/icon-1.svg

<svg width="40" height="40" viewBox="0 0 40 40" fill="none" xmlns="http://www.w3.org/2000/svg">
<path d="M20 40C31.0457 40 40 31.0457 40 20C40 8.9543 31.0457 0 20 0C8.9543 0 0 8.9543 0 20C0 31.0457 8.9543 40 20 40Z" fill="#90DFAA"/>
<path d="M26.5267 7.08118H13.4812V20.4039H26.5267V7.08118Z" fill="white"/>
<path d="M30.6853 18.3049H29.4259C29.3229 18.3049 29.2437 18.3841 29.2437 18.4871V19.501H10.7566V18.4871C10.7566 18.3841 10.6774 18.3049 10.5744 18.3049H9.31499C9.21202 18.3049 9.13281 18.3841 9.13281 18.4871V21.7742C9.13281 21.8772 9.21202 21.9564 9.31499 21.9564H10.5744C10.6774 21.9564 10.7566 21.8772 10.7566 21.7742V20.7604H29.2437V21.7742C29.2437 21.8772 29.3229 21.9564 29.4259 21.9564H30.6853C30.7883 21.9564 30.8675 21.8772 30.8675 21.7742V18.4871C30.8675 18.3921 30.7883 18.3049 30.6853 18.3049Z" fill="#FF7058"/>
<path d="M24.1109 17.0614C23.4376 18.3604 21.8456 19.2713 20 19.2713C18.1466 19.2713 16.5624 18.3604 15.8891 17.0614H11.8733V21.6238H28.1347V17.0614H24.1109Z" fill="#2B3B4E"/>
<path d="M29.4653 31.4693H10.5425L11.8732 21.6238H28.1346L29.4653 31.4693Z" fill="#324A5E"/>
<path d="M14.3919 23.2634H13.4255C13.3146 23.2634 13.2196 23.3426 13.2037 23.4377L13.1087 24.2852C13.1008 24.3803 13.18 24.4674 13.2909 24.4674H14.2731C14.3839 24.4674 14.4869 24.3882 14.4948 24.2852L14.5661 23.4377C14.582 23.3426 14.5028 23.2634 14.3919 23.2634Z" fill="#E6E9EE"/>
<path d="M17.4416 23.2634H16.4753C16.3644 23.2634 16.2693 23.3426 16.2614 23.4377L16.2139 24.2852C16.206 24.3803 16.2931 24.4674 16.404 24.4674H17.3862C17.497 24.4674 17.5921 24.3882 17.6 24.2852L17.6317 23.4377C17.6317 23.3426 17.5525 23.2634 17.4416 23.2634Z" fill="#E6E9EE"/>
<path d="M20.4832 23.2634H19.5168C19.4059 23.2634 19.3188 23.3426 19.3109 23.4377L19.303 24.2852C19.303 24.3803 19.3901 24.4674 19.5089 24.4674H20.4911C20.602 24.4674 20.697 24.3882 20.697 24.2852L20.6891 23.4377C20.6891 23.3426 20.5941 23.2634 20.4832 23.2634Z" fill="#E6E9EE"/>
<path d="M23.5327 23.2634H22.5663C22.4554 23.2634 22.3683 23.3426 22.3762 23.4377L22.4079 24.2852C22.4079 24.3803 22.503 24.4674 22.6218 24.4674H23.604C23.7148 24.4674 23.802 24.3882 23.7941 24.2852L23.7465 23.4377C23.7386 23.3426 23.6436 23.2634 23.5327 23.2634Z" fill="#E6E9EE"/>
<path d="M26.5741 23.2634H25.6078C25.4969 23.2634 25.4177 23.3426 25.4256 23.4377L25.4969 24.2852C25.5048 24.3803 25.6078 24.4674 25.7187 24.4674H26.7008C26.8117 24.4674 26.8989 24.3882 26.883 24.2852L26.788 23.4377C26.788 23.3426 26.685 23.2634 26.5741 23.2634Z" fill="#E6E9EE"/>
<path d="M13.9643 27.9841H12.9267C12.8078 27.9841 12.7049 28.0713 12.689 28.1822L12.5781 29.1643C12.5623 29.2752 12.6574 29.3703 12.7762 29.3703H13.8376C13.9564 29.3703 14.0673 29.2752 14.0752 29.1643L14.1623 28.1822C14.1702 28.0713 14.0831 27.9841 13.9643 27.9841Z" fill="#E6E9EE"/>
<path d="M17.2434 27.9841H16.2058C16.087 27.9841 15.984 28.0713 15.9761 28.1822L15.9206 29.1643C15.9127 29.2752 16.0078 29.3703 16.1266 29.3703H17.188C17.3068 29.3703 17.4097 29.2752 17.4177 29.1643L17.4573 28.1822C17.4573 28.0713 17.3622 27.9841 17.2434 27.9841Z" fill="#E6E9EE"/>
<path d="M20.5226 27.9841H19.485C19.3662 27.9841 19.2711 28.0713 19.2711 28.1822L19.2632 29.1643C19.2632 29.2752 19.3582 29.3703 19.477 29.3703H20.5384C20.6572 29.3703 20.7602 29.2752 20.7523 29.1643L20.7444 28.1822C20.7364 28.0713 20.6414 27.9841 20.5226 27.9841Z" fill="#E6E9EE"/>
<path d="M23.8019 27.9841H22.7643C22.6455 27.9841 22.5504 28.0713 22.5583 28.1822L22.5979 29.1643C22.6058 29.2752 22.7009 29.3703 22.8276 29.3703H23.8811C23.9999 29.3703 24.095 29.2752 24.087 29.1643L24.0316 28.1822C24.0237 28.0713 23.9207 27.9841 23.8019 27.9841Z" fill="#E6E9EE"/>
<path d="M27.0811 27.9841H26.0435C25.9247 27.9841 25.8375 28.0713 25.8455 28.1822L25.9326 29.1643C25.9405 29.2752 26.0514 29.3703 26.1702 29.3703H27.2316C27.3504 29.3703 27.4376 29.2752 27.4296 29.1643L27.3187 28.1822C27.3029 28.0713 27.1999 27.9841 27.0811 27.9841Z" fill="#E6E9EE"/>
<path d="M15.7622 25.5366H14.7641C14.6532 25.5366 14.5503 25.6237 14.5424 25.7267L14.4631 26.6376C14.4552 26.7406 14.5424 26.8277 14.6612 26.8277H15.6829C15.8018 26.8277 15.8968 26.7406 15.9047 26.6376L15.9602 25.7267C15.9681 25.6237 15.881 25.5366 15.7622 25.5366Z" fill="#E6E9EE"/>
<path d="M18.9225 25.5366H17.9245C17.8136 25.5366 17.7106 25.6237 17.7106 25.7267L17.679 26.6376C17.679 26.7406 17.7661 26.8277 17.8849 26.8277H18.9067C19.0255 26.8277 19.1205 26.7406 19.1205 26.6376L19.1364 25.7267C19.1285 25.6237 19.0413 25.5366 18.9225 25.5366Z" fill="#E6E9EE"/>
<path d="M22.0831 25.5366H21.0851C20.9742 25.5366 20.8792 25.6237 20.8792 25.7267L20.895 26.6376C20.895 26.7406 20.99 26.8277 21.1089 26.8277H22.1306C22.2494 26.8277 22.3366 26.7406 22.3366 26.6376L22.3049 25.7267C22.289 25.6237 22.194 25.5366 22.0831 25.5366Z" fill="#E6E9EE"/>
<path d="M25.2356 25.5366H24.2375C24.1267 25.5366 24.0316 25.6237 24.0395 25.7267L24.095 26.6376C24.1029 26.7406 24.1979 26.8277 24.3168 26.8277H25.3385C25.4573 26.8277 25.5445 26.7406 25.5366 26.6376L25.4573 25.7267C25.4494 25.6237 25.3544 25.5366 25.2356 25.5366Z" fill="#E6E9EE"/>
<path d="M29.1959 32.9187H10.8039L10.5425 31.4692H29.4653L29.1959 32.9187Z" fill="#2B3B4E"/>
<path d="M25.0454 8.90295H14.9543V9.67919H25.0454V8.90295Z" fill="#E6E9EE"/>
<path d="M25.0454 11.097H14.9543V11.8733H25.0454V11.097Z" fill="#E6E9EE"/>
<path d="M25.0454 13.2832H14.9543V14.0594H25.0454V13.2832Z" fill="#E6E9EE"/>
<path d="M25.0454 15.4772H14.9543V16.2534H25.0454V15.4772Z" fill="#E6E9EE"/>
</svg>

<svg width="40" height="40" fill="none" xmlns="http://www.w3.org/2000/svg"><path d="M20 40c11.046 0 20-8.954 20-20S31.046 0 20 0 0 8.954 0 20s8.954 20 20 20z" fill="#90DFAA"/><path d="M26.527 7.081H13.48v13.323h13.046V7.08z" fill="#fff"/><path d="M30.685 18.305h-1.26a.18.18 0 00-.181.182v1.014H10.757v-1.014a.18.18 0 00-.183-.182H9.315a.18.18 0 00-.182.182v3.287c0 .103.079.182.182.182h1.26a.18.18 0 00.182-.182V20.76h18.487v1.014c0 .103.079.182.182.182h1.26a.18.18 0 00.181-.182v-3.287a.184.184 0 00-.182-.182z" fill="#FF7058"/><path d="M24.11 17.061c-.672 1.3-2.264 2.21-4.11 2.21-1.853 0-3.438-.91-4.11-2.21h-4.017v4.563h16.262V17.06H24.11z" fill="#2B3B4E"/><path d="M29.465 31.47H10.543l1.33-9.846h16.262l1.33 9.845z" fill="#324A5E"/><path d="M14.392 23.263h-.966c-.111 0-.206.08-.222.175l-.095.847c-.008.095.071.182.182.182h.982c.11 0 .214-.079.222-.182l.071-.847c.016-.095-.063-.175-.174-.175zm3.05 0h-.967c-.11 0-.206.08-.214.175l-.047.847c-.008.095.08.182.19.182h.982c.111 0 .206-.079.214-.182l.032-.847c0-.095-.08-.175-.19-.175zm3.041 0h-.966c-.111 0-.198.08-.206.175l-.008.847c0 .095.087.182.206.182h.982c.111 0 .206-.079.206-.182l-.008-.847c0-.095-.095-.175-.206-.175zm3.05 0h-.967c-.11 0-.198.08-.19.175l.032.847c0 .095.095.182.214.182h.982c.11 0 .198-.079.19-.182l-.047-.847c-.008-.095-.103-.175-.214-.175zm3.041 0h-.966c-.111 0-.19.08-.182.175l.07.847c.009.095.112.182.223.182h.982c.11 0 .198-.079.182-.182l-.095-.847c0-.095-.103-.175-.214-.175zm-12.61 4.721h-1.037a.24.24 0 00-.238.198l-.11.982c-.017.111.078.206.197.206h1.062c.118 0 .23-.095.237-.206l.087-.982c.008-.11-.079-.198-.198-.198zm3.279 0h-1.037c-.119 0-.222.087-.23.198l-.055.982c-.008.111.087.206.206.206h1.061a.232.232 0 00.23-.206l.04-.982c0-.11-.096-.198-.215-.198zm3.28 0h-1.038c-.119 0-.214.087-.214.198l-.008.982c0 .111.095.206.214.206h1.061c.12 0 .222-.095.214-.206l-.008-.982a.218.218 0 00-.221-.198zm3.279 0h-1.038c-.119 0-.214.087-.206.198l.04.982a.226.226 0 00.23.206h1.053c.119 0 .214-.095.206-.206l-.055-.982c-.008-.11-.111-.198-.23-.198zm3.279 0h-1.037c-.12 0-.207.087-.198.198l.087.982c.008.111.118.206.237.206h1.062a.193.193 0 00.198-.206l-.111-.982a.24.24 0 00-.238-.198zm-11.319-2.447h-.998c-.11 0-.214.087-.222.19l-.079.91c-.008.104.08.19.198.19h1.022c.119 0 .214-.086.222-.19l.055-.91c.008-.103-.079-.19-.198-.19zm3.16 0h-.998c-.11 0-.213.087-.213.19l-.032.91c0 .104.087.19.206.19h1.022c.119 0 .213-.086.213-.19l.016-.91a.21.21 0 00-.213-.19zm3.161 0h-.998c-.11 0-.206.087-.206.19l.016.91c0 .104.095.19.214.19h1.022c.118 0 .206-.086.206-.19l-.032-.91a.23.23 0 00-.222-.19zm3.153 0h-.998c-.111 0-.206.087-.198.19l.055.91c.008.104.103.19.222.19h1.021c.12 0 .206-.086.199-.19l-.08-.91c-.008-.103-.103-.19-.221-.19z" fill="#E6E9EE"/><path d="M29.196 32.919H10.804l-.261-1.45h18.922l-.27 1.45z" fill="#2B3B4E"/><path d="M25.045 8.903h-10.09v.776h10.09v-.776zm0 2.194h-10.09v.776h10.09v-.776zm0 2.186h-10.09v.776h10.09v-.776zm0 2.194h-10.09v.776h10.09v-.776z" fill="#E6E9EE"/></svg>
